/* XPM */
static char * collect_xpm[] = {
"32 32 33 1",
" 	c #452E40",
".	c #483142",
"+	c #796067",
"@	c #7B6268",
"#	c #735B62",
"$	c #7A6167",
"%	c #765E64",
"&	c #745C63",
"*	c #7A6267",
"=	c #6F575E",
"-	c #654E58",
";	c #69525A",
">	c #765D64",
",	c #715860",
"'	c #654D57",
")	c #462F40",
"!	c #473041",
"~	c #AB9D99",
"{	c #F1E0D2",
"]	c #DCB24C",
"^	c #462F41",
"/	c #C8B1A9",
"(	c #473042",
"_	c #E08E72",
":	c #D0836B",
"<	c #DE8D71",
"[	c #8179A5",
"}	c #452F40",
"|	c #9089BA",
"1	c #473142",
"2	c #473141",
"3	c #7A6268",
"4	c #786066",
"                             .+@",
" #@$$%                        $@",
" &@*=-                        $@",
" ;@>                          *@",
" ,@                           @@",
" ''      )       )     !      @@",
"        ~~~~~~~~~~~~~~        @@",
"        ~{{{{{{{{{{{{{        @@",
"       )~{{{{{{{{{{{{{]^      @@",
"       !~{//////////{{]^      @@",
"       ^~{{{{{{{{{{{{{]!      @@",
"       )~{/////////{{{(^      $@",
"  ^     ~{{{{{{{{{{{{{((      @@",
"  )     ~{//////////{{_^      $@",
"        ~{{{{{{{{{{{{{:       @@",
"        ~{////{{{{{{{{<       @@",
"       ^~{{{{{{{{{{{{{!( !    @@",
"        ~{////////{{{{^) ^    $@",
"        ~{{{{{{{{{{{{{[  }    @@",
"       ^~{//////////{{|       @@",
"        ~{{{{{{{{{{{{{|       @@",
"       )~{//////{{{{{{1  }    @@",
"       ^~{{{{{{{{{{{{{        @@",
"        ~{/////////{{{        $@",
"        ~{{{{{{{{{{{{{ ^      @@",
"       ) ^^^^^}2 ^     )      @@",
"         ^}                   @@",
"                              @@",
"                          }   @@",
"                          }   3@",
"@@@@@@@@@@@@@@@@@@$@$$$$@@4$@@@@",
"@@@@@@@@@@@@@@@@@@@@@@@@@@@@@@@@"};
