/* XPM */
static char * exit2_xpm[] = {
"32 32 19 1",
" 	c #452E40",
".	c #7B6268",
"+	c #796066",
"@	c #7A6167",
"#	c #7A6267",
"$	c #6D555D",
"%	c #5D4652",
"&	c #775E65",
"*	c #523B49",
"=	c #473041",
"-	c #5E463E",
";	c #BC8776",
">	c #875B4D",
",	c #453833",
"'	c #5A433E",
")	c #A97B6C",
"!	c #9F6C5C",
"~	c #5A423E",
"{	c #7A6268",
"                              ..",
" +...@                        ..",
" ..#$%                        ..",
" ..&                          ..",
"*..                           ..",
"=.                            ..",
"                              ..",
"                              ..",
"                              ..",
"                              ..",
"                              ..",
"       ------------------     .#",
"      -;>>>>>>>>>>>>>>>>;-    ..",
"      -;>,,,,,,,,,,,,,,>;-    ..",
"     -;;>,,,,,,,,,,,,,,>;;-   ..",
"     -;;>,,,,,,,,,,,,,,>;;-   ..",
"    -;;;>,,,,,,,,,,,,,,>;;;-  ..",
"    -;;;>>,,,,,,,,,,,,>>;;;-  ..",
"   ->;;>-->>>>>>>>>>>>-->;;>' ..",
"   ->;;>->>>>>>)>>>>>>>->;;>- ..",
"   ->;>--!!!!!!;;!!,,,!-->;>- ..",
"   ->;>--!!!!!!;;!!,,,!-->;>- ..",
"   ->>- -!!!!!!;;!!!,!!- ->>- ..",
"   ->>- -!!!!!!!!!!,,,!- ->>- @.",
"   ->-  -!!!!!!!!!!!!!!-  ->- ..",
"   ---  ~~~-----~~~~----  --- ..",
"                              ..",
"                              ..",
"                              ..",
"                              ..",
"...............@....#..........{",
"................................"};
