/* XPM */
static char * all_assets_400x96_32x32_xpm[] = {
"32 32 7 1",
" 	c None",
".	c #5E463E",
"+	c #BC8776",
"@	c #875B4D",
"#	c #453833",
"$	c #A97B6C",
"%	c #9F6C5C",
"                                ",
"                                ",
"                                ",
"                                ",
"                                ",
"                                ",
"                                ",
"                                ",
"                                ",
"                                ",
"                                ",
"       ..................       ",
"      .+@@@@@@@@@@@@@@@@+.      ",
"      .+@##############@+.      ",
"     .++@##############@++.     ",
"     .++@##############@++.     ",
"    .+++@##############@+++.    ",
"    .+++@@############@@+++.    ",
"   .@++@..@@@@@@@@@@@@..@++@.   ",
"   .@++@.@@@@@@$@@@@@@@.@++@.   ",
"   .@+@..%%%%%%++%%###%..@+@.   ",
"   .@+@..%%%%%%++%%###%..@+@.   ",
"   .@@. .%%%%%%++%%%#%%. .@@.   ",
"   .@@. .%%%%%%%%%%###%. .@@.   ",
"   .@.  .%%%%%%%%%%%%%%.  .@.   ",
"   ...  ................  ...   ",
"                                ",
"                                ",
"                                ",
"                                ",
"                                ",
"                                "};
