/* XPM */
static char * realfile_xpm[] = {
"32 32 11 1",
" 	c #452E40",
".	c #FCECD2",
"+	c #DBC9B3",
"@	c #7B6268",
"#	c #5C454F",
"$	c #AB9D99",
"%	c #F1E0D2",
"&	c #DCB24C",
"*	c #C8B1A9",
"=	c #E08E72",
"-	c #9089BA",
" .++++++ @###### .++++++ @######",
" .++++++ @###### .++++++ @######",
" .++++++ @###### .++++++ @######",
" .++++++ @###### .++++++ @######",
" .++++++ @###### .++++++ @######",
" .++++++ @###### .++++++ @######",
" .......$$$$$$$$$$$$$$.. @@@@@@@",
"        $%%%%%%%%%%%%%          ",
" @######$%%%%%%%%%%%%%&# .++++++",
" @######$%**********%%&# .++++++",
" @######$%%%%%%%%%%%%%&# .++++++",
" @######$%*********%%%## .++++++",
" @######$%%%%%%%%%%%%%## .++++++",
" @######$%**********%%=# .++++++",
" @@@@@@@$%%%%%%%%%%%%%=@ .......",
"        $%****%%%%%%%%=         ",
" .++++++$%%%%%%%%%%%%%++ @######",
" .++++++$%********%%%%++ @######",
" .++++++$%%%%%%%%%%%%%-+ @######",
" .++++++$%**********%%-+ @######",
" .++++++$%%%%%%%%%%%%%-+ @######",
" .++++++$%******%%%%%%++ @######",
" .......$%%%%%%%%%%%%%.. @@@@@@@",
"        $%*********%%%          ",
" @######$%%%%%%%%%%%%%## .++++++",
" @###### .++++++ @###### .++++++",
" @###### .++++++ @###### .++++++",
" @###### .++++++ @###### .++++++",
" @###### .++++++ @###### .++++++",
" @###### .++++++ @###### .++++++",
" @@@@@@@ ....... @@@@@@@ .......",
"                                "};
