/* XPM */
static char * realfloor_xpm[] = {
"32 32 2 1",
" 	c #452E40",
".	c #7B6268",
"                              ..",
" .....                        ..",
" .....                        ..",
" ..                           ..",
" ..                           ..",
" ..                           ..",
"  .                           ..",
"                              ..",
"                              ..",
"                              ..",
"                              ..",
"                              ..",
"                              ..",
"                              ..",
"                              ..",
"                              ..",
"                              ..",
"                              ..",
"                              ..",
"                              ..",
"                              ..",
"                              ..",
"                              ..",
"                              ..",
"                              ..",
"                              ..",
"                              ..",
"                              ..",
"                              ..",
"                              ..",
"................................",
"................................"};
