/* XPM */
static char * ordinateur_xpm[] = {
"32 32 12 1",
" 	c #452E40",
".	c #FCECD2",
"+	c #DBC9B3",
"@	c #7B6268",
"#	c #5C454F",
"$	c #7A6D60",
"%	c #C2B1A2",
"&	c #F1E0D2",
"*	c #433D36",
"=	c #23F20E",
"-	c #645A4F",
";	c #A39486",
" .++++++ @###### .++++++ @######",
" .++++++ @###### .++++++ @######",
" .++++++ @#$$$$$$$$$$+++ @######",
" .++++++ @$%%%%%%%%%%$++ @######",
" .++++++ $%%%%%%%%%%%%$+ @######",
" .++++++$%%%%%%%%%%%%%%$ @######",
" .......$&&&&&&&&&&&&&&$ @@@@@@@",
"        $&%%%%%%%%%%%%&$        ",
" @######$&%**********%&$ .++++++",
" @######$&%**=****=**%&$ .++++++",
" @######$&%**********%&$ .++++++",
" @######$&%*=******=*%&$ .++++++",
" @######$&%**======**%&$ .++++++",
" @######$&%**********%&$ .++++++",
" @@@@@@@$&%**********%&$ .......",
"      $$$&&&&&&&&&&&&&&$$$      ",
" .+++$%%$%%%%%%%%%%%%%%$%%$#####",
" .+++$&&%$$$$$&&&&$$$$$%&&$#####",
" .++-$&&%%%%%%=&&&%%%%%%&&$#####",
" .+-+$&$$;;$%&&&&&&%%%%%&&$#####",
" .-++$%$$$$$%%%%%%%%;%$$$%$-####",
" .-++$%%%%%%%%%%%%%%%%%%%%$-####",
" .-..$$$$$$$$$$$$$$$$$$$$$$-@@@@",
"   -                       -    ",
" @#-#;;;;;;;;;;;;;;;;###---+++++",
" @#--%&&&&&&&&&&&&&&;##%%.++++++",
" @###%&%&%&%&%&%&%%&;#;&&;++++++",
" @###;&&&&&&&&&&&&&&;#;&&;++++++",
" @###;;;;;;;;;;;;;;;;#;;;;++++++",
" @###### .++++++ @###### .++++++",
" @@@@@@@ ....... @@@@@@@ .......",
"                                "};
