/* XPM */
static char * player_xpm[] = {
"32 32 49 1",
" 	c #452E40",
".	c #796066",
"+	c #7B6268",
"@	c #533C4A",
"#	c #786066",
"$	c #785F65",
"%	c #7A6167",
"&	c #735B62",
"*	c #462F40",
"=	c #462F41",
"-	c #463041",
";	c #785F66",
">	c #775E65",
",	c #755C63",
"'	c #4A3343",
")	c #7A6D60",
"!	c #695A55",
"~	c #483142",
"{	c #796067",
"]	c #5F4853",
"^	c #C2B1A2",
"/	c #4A3443",
"(	c #473141",
"_	c #775F65",
":	c #452F40",
"<	c #F1E0D2",
"[	c #473041",
"}	c #433D36",
"|	c #23F20E",
"1	c #7A6168",
"2	c #473042",
"3	c #473242",
"4	c #57464E",
"5	c #7A6268",
"6	c #604E53",
"7	c #645A4F",
"8	c #E9E1CB",
"9	c #695859",
"0	c #DBC9B3",
"a	c #A39486",
"b	c #72645B",
"c	c #7A6267",
"d	c #FCECD2",
"e	c #5C454F",
"f	c #61574E",
"g	c #483242",
"h	c #7A6C69",
"i	c #473142",
"j	c #796167",
"                              .+",
"@#$%%&      *  *      =-  *   ;+",
"@;>%,     ')))))))))!~    * *=>+",
"@{+]      )^^^^^^^^^^)/*    = .+",
"@&+]     )^^^^^^^^^^^^)(      ;+",
"@&      )^^^^^^^^^^^^^^)      _+",
"       :)<<<<<<<<<<<<<<)      %+",
"        )<^^^^^^^^^^^^<)      %+",
"       [)<^}}}}}}}}}}^<)      >+",
"       *)<^}}|}}}}|}}^<)      #+",
"        )<^}}}}}}}}}}^<)      .+",
"        )<^}|}}}}}}|}^<)      1+",
"        )<^}}||||||}}^<)      %+",
" = [=  *)<^}}}}}}}}}}^<)  =   ++",
" =  ==2')<^}}}}}}}}}}^<) =    ++",
"      )))<<<<<<<<<<<<<<)))    1+",
" [- 3)^^)^^^^^^^^^^^^^^)^^) = ++",
"  2 4)<<^)))))<<<<)))))^<<) = 5+",
"  267)<<^^^^^^8<<<^^^^^^<<) * ++",
"  970)<))aa)^<<<<<<^^^^^<<b~  c+",
"  700)^)))))^^^^^^^^a^)))^)7  %+",
"  700)^^^^^^^^^^^^^^^^^^^^)7[ c+",
"  7dd))))))))))))))))))))))7= c+",
"   7                       7  .+",
" = 7eaaaaaaaaaaaaaaaaeee7ffg= %+",
"   77^<<<<<<<<<<<<<<aee^^h(   ++",
"   2=^<^<^<^<^<^<^^<aea<<ai = 1+",
"  = [a<<<<<<<<<<<<<<aea<<a-   ++",
"  * -aaaaaaaaaaaaaaaaeaaaa=   ++",
"     =[= *   :-*         =    ++",
"+++++++c{cc%%1+j%%c+%1+++++++5++",
"+++++++++++++++++++++c++++++++++"};
