/* XPM */
static char * sol_xpm[] = {
"32 32 5 1",
" 	c #452E40",
".	c #FCECD2",
"+	c #DBC9B3",
"@	c #7B6268",
"#	c #5C454F",
" .++++++ @###### .++++++ @######",
" .++++++ @###### .++++++ @######",
" .++++++ @###### .++++++ @######",
" .++++++ @###### .++++++ @######",
" .++++++ @###### .++++++ @######",
" .++++++ @###### .++++++ @######",
" ....... @@@@@@@ ....... @@@@@@@",
"                                ",
" @###### .++++++ @###### .++++++",
" @###### .++++++ @###### .++++++",
" @###### .++++++ @###### .++++++",
" @###### .++++++ @###### .++++++",
" @###### .++++++ @###### .++++++",
" @###### .++++++ @###### .++++++",
" @@@@@@@ ....... @@@@@@@ .......",
"                                ",
" .++++++ @###### .++++++ @######",
" .++++++ @###### .++++++ @######",
" .++++++ @###### .++++++ @######",
" .++++++ @###### .++++++ @######",
" .++++++ @###### .++++++ @######",
" .++++++ @###### .++++++ @######",
" ....... @@@@@@@ ....... @@@@@@@",
"                                ",
" @###### .++++++ @###### .++++++",
" @###### .++++++ @###### .++++++",
" @###### .++++++ @###### .++++++",
" @###### .++++++ @###### .++++++",
" @###### .++++++ @###### .++++++",
" @###### .++++++ @###### .++++++",
" @@@@@@@ ....... @@@@@@@ .......",
"                                "};
