/* XPM */
static char * realwall_xpm[] = {
"32 32 9 1",
" 	c #452E40",
".	c #FCECD2",
"+	c #DBC9B3",
"@	c #7B6268",
"#	c #5C454F",
"$	c #607B91",
"%	c #7FA4C2",
"&	c #A5BCD0",
"*	c #B5C6D4",
" .++++++ @###### .++++++ @######",
" .++++++ @###### .++++++ @######",
" .++++++ @###### .++++++ @######",
" .++++++ @###### .++++++ @######",
" .++++++ @###### .++++++ @######",
" .++++++ @###### .++++++ @######",
" ....... @@@@@@@ ....... @@@@@@@",
"         $$$ $$$   $$$$         ",
" @#####$$%%%$%%%$$$$%%%$ .++++++",
" @####$&&%&&%&&%%%%%&&%%$.++++++",
" @###$&&**%&&&&%&&&&&&&%%$++++++",
" @##$&&****%&&&&%&&&&&&&%%$+++++",
" @##$&*****%&&&&%&&&&&&&%%$+++++",
" @##$&%&***%&&&&&%&&&&&&&%$+++++",
" @$$&%&&***&%&&&&%&&&&&&&%%$....",
"  %%$%&***&&%&&&&%&&&&&&&%%$    ",
" .%%$&***&&&%&&&&%&&&&&&&%%$####",
" .%&$&***&&&%&&&&%&&&&&&&%%$####",
" .$$$&&***&&%&&&&%&&&&&&&%%$####",
" .+$&%&&***&%&&&&%&&&&&&&%%$####",
" .++$&%&***%&&&&&%&&&&&&&%$#####",
" .++$&*****%&&&&%&&&&&&&%%$#####",
" ...$&&****%&&&&%&&&&&&&%%$@@@@@",
"     $&&**%&&&&%&&&&&&&%%$      ",
" @####$&&%&&%&&%%%%%&&%%$.++++++",
" @#####$$%%%$%%%$$$$%%%$ .++++++",
" @###### $$$+$$$ @#$$$$# .++++++",
" @###### .++++++ @###### .++++++",
" @###### .++++++ @###### .++++++",
" @###### .++++++ @###### .++++++",
" @@@@@@@ ....... @@@@@@@ .......",
"                                "};
