/* XPM */
static char * wall2_xpm[] = {
"32 32 29 1",
" 	c #452E40",
".	c #533C4A",
"+	c #462F40",
"@	c #7B6268",
"#	c #796066",
"$	c #765D64",
"%	c #755C63",
"&	c #735B62",
"*	c #786066",
"=	c #452F40",
"-	c #462F41",
";	c #473041",
">	c #7A6167",
",	c #654D57",
"'	c #69525A",
")	c #607B91",
"!	c #5B7186",
"~	c #796167",
"{	c #7FA4C2",
"]	c #7A6268",
"^	c #A5BCD0",
"/	c #B5C6D4",
"(	c #483142",
"_	c #473141",
":	c #5F7A90",
"<	c #5C7287",
"[	c #463041",
"}	c #473242",
"|	c #473142",
"  ....                      + @@",
" #$%&&                        @@",
" *@@               ==-;; -  ++>@",
",@@'                          *@",
" @&                           *@",
".&                            >@",
"               ; =            *@",
"         ))) !!!   ))))       ~@",
"      -)){{{){{{)))){{{)  -   ]@",
"     -)^^{^^{^^{{{{{^^{{) -   @@",
" +   )^^//{^^^^{^^^^^^^{{)    @@",
"   ()^^////{^^^^{^^^^^^^{{)   >@",
"   ;)^/////{^^^^{^^^^^^^{{)   ]@",
"   -)^{^///{^^^^^{^^^^^^^{)_  >@",
"  :<^{^^///^{^^^^{^^^^^^^{{)  >@",
"  {{){^///^^{^^^^{^^^^^^^{{)  @@",
"  {{)^///^^^{^^^^{^^^^^^^{{)  @@",
"  {^)^///^^^{^^^^{^^^^^^^{{)  >@",
"  )))^^///^^{^^^^{^^^^^^^{{)  @@",
"  [)^{^^///^{^^^^{^^^^^^^{{)  >@",
"   +)^{^///{^^^^^{^^^^^^^{)   >@",
"    )^/////{^^^^{^^^^^^^{{)   >@",
"    )^^////{^^^^{^^^^^^^{{)   @@",
"     )^^//{^^^^{^^^^^^^{{!    @@",
"     [)^^{^^{^^{{{{{^^{{)+    #@",
"    -  )){{{){{{)))){{{)      @@",
"         ))! :)) - !)))-      @@",
"       + }++   | - -   -      @@",
"      -                       @@",
"                              #@",
"@@@@]>>]>>>@>>@@@@@@>@@@@>@@@@@@",
"@@@@@@@@@@@@@@@@@@@@@@@@@@@@@@@@"};
